X: 117
T:Englands Glory. JC.117
T:May Day,aka. JC.117
T:Parson in the Suds,aka. JC.117
M:C|
L:1/8
Q:180
S:John Clare,Poet,Helpston. (1793-1864)
R:Reel
O:England
A:Northamptonshire
N:
Z:vmp.P. Headford
K:G
d|gfgd cBAG|FGAB cAAf|gfgd cBAG|DGAc BGG:|!
|:z|DGBG DGBG|DGBG cAAB|DGBG DGBG|dedB BGGB|!
DGBG DGBG|DGBG cAAB|cdef gedc|BdAc BGG:|]
W:Song text exists. See Deacon.|
